!!!COM: Peter Cornelius
!!!CNT: Deutsch
!!!TXO: Deutsch
!!!OTL: Auf ein Unbekannte
!!!LYR: Hebbel
!!!OPR: 6 Lieder
!!!OPS: Op.5
!!!ONM: No. 3
!!!ENC: Ben Fuhrman
!!!YOR: CD Sheet Music, Mid-Romantic German Lieder: The Ultimate Collection.
!!!YOR: CD Sheet Music, LLC 2001
!!!ODT: 1861
!!NB: Only vocal melody encoded.
!!NB: First instance of melodic material only encoded.
!!created: 2/3/10 1:10PM
!!proofed and posted: 2/3/10 1:11PM
**kern	**silbe
*clef G2	*
*k[f#c#g#]	*
*M4/4	*
*MM[Langsam, dem Sa2nger folgend]	*
=8	=8
2r	.
4r	.
8r	.
{8c#	{Die
=9	=9
8a	Da2mm-
8a	-e-
8g#	-rung
8f#	war
8e	la2ngst
8c#	her-
8d	-ein-
8e	-ge-
=10	=10
8e	-bro-
8d#}	-chen;}
4r	.
8r	.
{8d#	{ich
8d#	hatt'
8d#	dich
=11	=11
8.a	nie
16g	ge-
4d#	-sehn,
8r	.
8d#	du
8e	trast
8f#	her-
=12	=12
4g#}	-an;}
4r	.
8r	.
{8e#	{da
8f#	hat
8g#	dein
=13	=13
8a#	Mund
8a#	manch'
8dd#	mil-
8b#	-des
4.a#	Wort
8d#	ge-
=14	=14
4a#	-spro-
4g#}	-chen,}
8r	.
{8g#	{mit
8.cc#	heil-
16g#	-gem
=15	=15
4.b	Ernst,
8gn	der
8c#	dir
8c#	mein
8.b	Herz
16e#	ge-
=16	=16
4f#}	-wann.}
4r	.
2r	.
=17	=17
4r	.
{2fn	{Still,
8g-	wie
8f#	du
=18	=18
4a-	nah-
4e-	-test,
8e-	hast
8e-	du
8d	dich
8e-	er-
=19	=19
4g-	-ho-
8fn	-ben
8fn	und
[2gn	sanft
=20	=20
4.g]}	|}
{8e-	{uns
8d	al-
8cn	-len
8d	gu-
8e-	-te
=21	=21
8.a-	Nacht
16gn	ge-
4fn}	-sagt,}
2r	.
=22	=22
4r	.
8r	.
{8g-	{dein
[2b-	Bild
=23	=23
4b-]	|
4b-	war
4.cc-	tief
8b-	von
=24	=24
8a-	Fin-
8e-	-ster-
8d	-nis
8e-	um-
4g-	-wo-
4fn}	-ben,}
=25	=25
2r	.
8r	.
{8fn	{nach
8fn	dei-
8b-	-nem
=26	=26
4b-	Na-
8a	-men
8r	.
8fn	hab'
8fn	ich
8e	nicht
8d	ge-
=27	=27
4a}	-fragt.}
4r	.
2r	.
=28	=28
2r	.
8r	.
{8f#	{Nun
8f#	wird
8gn	mein
=29	=29
(4f#	Au
8e)	-ge
8r	.
8cc#	nim-
8b	-mer
8gn	dich
8f#	er-
=30	=30
4a	-ken-
8c#}	-nen,}
8r	.
{4d	{wenn
8e	du
8f#	auch
=31	=31
8f#	einst
8f#	vor-
[4b	-u2-
8b]	|
8b	-ber-
8cc#	-gehst
8b	an
=32	=32
2.a#}	mir,}
8r	.
{8g#	{und
=33	=33
8g#	ho2r'
8e#	ich
8e#	dich
8f#	von
8a#	frem-
8g#	-der
8.cc#	Lip-
16dd#	-pe
=34	=34
4dd#	nen-
8cc#}	-nen,}
8r	.
8r	.
{8f#	{so
8f#	sagt
8f#	dein
=35	=35
8.dd	Na-
16cc#	me
8b	selbst
8b	mir
4.ee	nichts
8dd	von
=36	=36
2cc#}	dir,}
8r	.
{8cc#	{so
8cc#	sagt
8ccn	dein
=37	=37
8ccn	Na-
8b	-me
8gn	selbst
8e	mir
4.b	nichts
8a	von
=38	=38
2.a}	dir.}
{4a#	{Und
=39	=39
8a#	den-
8f##	-noch
8g#	wirst
8b	du
8ee#	e-
8dd#	-wig
8b	in
8a#	mir
=40	=40
4cc#	le-
8e#}	-ben,}
8r	.
{4f#	{gleich
8g#	wie
8a#	ein
=41	=41
4cc#	Ton
4b	lebt
8a#	in
8a#	der
8f#	stil-
8g#	-len
=42	=42
2a#}	Luft,}
8r	.
{8fn	und
8fn	kann
8fn	ich
=43	=43
8gn	Form
8B-	nicht
8e-	und
8gn	Ge-
4.an	-stalt
8ccn	dir
=44	=44
4a	ge-
4b-}	-ben,}
4r	.
8r	.
{8b-	{so
=45	=45
8b-	reisst
8fn	auch
8b-	kei-
8dd	-ne
[2ffn	Form
=46	=46
4ffn]	|
2ccn	dich
8a	in
8fn	die
=47	=47
2.dd-}	Gruft!}
4r	.
=48	=48
1r	.
=49	=49
2r	.
4r	.
8r	.
{8c#	{Das
=50	=50
8a	Le-
8a	-ben
8g#	hat
8f#	ge-
8e	-heim-
8c#	-nis
8d#	-vol-
8e	-le
=51	=51
4e	Stun-
4d#}	-den,}
4r	.
{8f#	{da
8d#	tut,
=52	=52
4ccn	selbst-
[4d#	-herr-
8d#]	|
8d#	-schend,
8e	die
8f#	Na-
=53	=53
8.g#	tur
16a	sich
4g#	kund;
4r	.
8r	.
8cc#	da
=54	=54
8.dd	blu-
16cc#	-ten
4b}	wir}
4r	.
8r	.
{8g#	{und
=55	=55
8a	fu2h-
8a	-len
8g#	kei-
8f#	-ne
4cc#	Wun-
8g#	-den,
16r	.
16cc#	da
=56	=56
8.dd#	freu'n
16cc#	wir
4b}	uns}
4r	.
8r	.
{8g#	{und
=57	=57
8a	freu'n
8a	uns
8g#	oh-
8f#	-ne
4cc#}	Grund.}
8r	.
{8g#	{Viel-
=58	=58
8a	-leicht
8a	wird
8f#	dann
8a	zu
8cc#	flu2ch-
8b	-tig-
8g#	-stem
8dd	Ver-
=59	=59
4dd	-ei-
8cc#}	-ne}
8r	.
4r	.
8r	.
{8f#	{Ver
=60	=60
8.g#	-wand-
16g#	-tes
8g#	dem
8g#	Ver-
(8g#	-wand-
8a)	|
4a	-tem
=61	=61
8.a	nah'
16a#	ge-
4a#}	-ru2ckt,}
8r	.
{8a#	{viel-
8.b	-leicht,
16cc#	ich
=62	=62
4b	schau-
8a#}	-dre,}
8r	.
{8ff#	{jauch-
8ee	-ze
8cc#	o-
8a#	-der
=63	=63
4ee	wei-
8dd#	-ne,
8g#	ist's
4.dd#	dein
8ddn	E,-
=64	=64
4dd	-pfin-
8cc#}	-den,}
8r	.
{8f#	{wel-
8f#	-ches
8e#	mich
8f#	durch-
=65	=65
4g#	-zu2ckt,
8r	.
8g##	viel-
4.a#	-leicht,
8a#	ich
=66	=66
4a#	schau-
8d#}	-dre,}
8r	.
{8ee#	jauch-
8dd#	-ze
8b	o-
8a#	-der
=67	=67
4cc#	wei-
8e#	-ne,
8e#	ist's
4.f#	dein
8g#	Em-
=68	=68
[1a#	-pfin-
=69	=69
4a#]	|
8e#}	-den,}
8r	.
{8e#	{wel-
8e#	-ches
8d#	mich
8c#	durch
=70	=70
2f#}	-zu2ckt.}
2r	.
==	==
*-	*-
